X:135
T:Tobin's Favorite
C:Joe Buchanan's Scottish Tome - Page 255.1
I:255 1
Z:Carl Allison
R:Jig
L:1/8
M:6/8
K:D
A/F/ | DFA dcd | ecA cde | fdf {a}gfg | ecA GFE | DEA dcd | ecA efg | f/g/af gec | edcd :| 
d | dfa agf | e/f/ge efg | fdf {a}gfg | ecA GFE | DEA dcd | ecA efg | f/g/af gec | edcd :|

